scalable-up-to-16/apps/help-browser-symbolic.svg

<svg width="16" height="16" version="1.1" xmlns="http://www.w3.org/2000/svg">
	<path d="M 8 1 A 7 7 0 0 0 1 8 A 7 7 0 0 0 8 15 A 7 7 0 0 0 15 8 A 7 7 0 0 0 8 1 z M 8 3 A 5 5 0 0 1 10.234375 3.5332031 L 9.3417969 5.3164062 A 3 3 0 0 0 8 5 A 3 3 0 0 0 6.6601562 5.3203125 L 5.765625 3.5292969 A 5 5 0 0 1 8 3 z M 3.5332031 5.765625 L 5.3164062 6.6582031 A 3 3 0 0 0 5 8 A 3 3 0 0 0 5.3203125 9.3398438 L 3.5292969 10.234375 A 5 5 0 0 1 3 8 A 5 5 0 0 1 3.5332031 5.765625 z M 12.470703 5.765625 A 5 5 0 0 1 13 8 A 5 5 0 0 1 12.466797 10.234375 L 10.683594 9.3417969 A 3 3 0 0 0 11 8 A 3 3 0 0 0 10.679688 6.6601562 L 12.470703 5.765625 z M 8 6 A 2 2 0 0 1 10 8 A 2 2 0 0 1 8 10 A 2 2 0 0 1 6 8 A 2 2 0 0 1 8 6 z M 9.3398438 10.679688 L 10.234375 12.470703 A 5 5 0 0 1 8 13 A 5 5 0 0 1 5.765625 12.466797 L 6.6582031 10.683594 A 3 3 0 0 0 8 11 A 3 3 0 0 0 9.3398438 10.679688 z " fill="#bebebe"/>
</svg>

<svg width="16" height="16" version="1.1" xmlns="http://www.w3.org/2000/svg">
 <path fill="#bebebe" d="m8 1a7 7 0 0 0 -7 7 7 7 0 0 0 7 7 7 7 0 0 0 7 -7 7 7 0 0 0 -7 -7zm0 2a5 5 0 0 1 2.2344 0.5332l-0.89258 1.7832a3 3 0 0 0 -1.3418 -0.31641 3 3 0 0 0 -1.3398 0.32031l-0.89453-1.791a5 5 0 0 1 2.2344 -0.5293zm-4.4668 2.7656 1.7832 0.89258a3 3 0 0 0 -0.31641 1.3418 3 3 0 0 0 0.32031 1.3398l-1.791 0.89453a5 5 0 0 1 -0.5293 -2.2344 5 5 0 0 1 0.5332 -2.2344zm8.9375 0a5 5 0 0 1 0.5293 2.2344 5 5 0 0 1 -0.5332 2.2344l-1.7832-0.89258a3 3 0 0 0 0.31641 -1.3418 3 3 0 0 0 -0.32031 -1.3398zm-4.4707 0.23438a2 2 0 0 1 2 2 2 2 0 0 1 -2 2 2 2 0 0 1 -2 -2 2 2 0 0 1 2 -2zm1.3398 4.6797 0.89453 1.791a5 5 0 0 1 -2.2344 0.5293 5 5 0 0 1 -2.2344 -0.5332l0.89258-1.7832a3 3 0 0 0 1.3418 0.31641 3 3 0 0 0 1.3398 -0.32031z"/>
</svg>
